assets/icons/icon_write.svg

<svg width="48" height="48" viewBox="0 0 48 48" fill="none" xmlns="http://www.w3.org/2000/svg">
<g clip-path="url(#clip0_2188_3156)">
<path d="M37.2797 30.5002H33.4997V26.7202C33.4997 25.8902 32.8297 25.2202 31.9997 25.2202C31.1697 25.2202 30.4997 25.8902 30.4997 26.7202V30.5002H26.7197C25.8897 30.5002 25.2197 31.1702 25.2197 32.0002C25.2197 32.8302 25.8897 33.5002 26.7197 33.5002H30.4997V37.2802C30.4997 38.1102 31.1697 38.7802 31.9997 38.7802C32.8297 38.7802 33.4997 38.1102 33.4997 37.2802V33.5002H37.2797C38.1097 33.5002 38.7797 32.8302 38.7797 32.0002C38.7797 31.1702 38.1097 30.5002 37.2797 30.5002Z" fill="black"/>
<path d="M13.7197 16.1899H29.2797C30.1097 16.1899 30.7797 15.5199 30.7797 14.6899C30.7797 13.8599 30.1097 13.1899 29.2797 13.1899H13.7197C12.8897 13.1899 12.2197 13.8599 12.2197 14.6899C12.2197 15.5199 12.8897 16.1899 13.7197 16.1899Z" fill="black"/>
<path d="M13.7197 23.9702H19.9997C20.8297 23.9702 21.4997 23.3002 21.4997 22.4702C21.4997 21.6402 20.8297 20.9702 19.9997 20.9702H13.7197C12.8897 20.9702 12.2197 21.6402 12.2197 22.4702C12.2197 23.3002 12.8897 23.9702 13.7197 23.9702Z" fill="black"/>
<path d="M16.9997 28.75H13.7197C12.8897 28.75 12.2197 29.42 12.2197 30.25C12.2197 31.08 12.8897 31.75 13.7197 31.75H16.9997C17.8297 31.75 18.4997 31.08 18.4997 30.25C18.4997 29.42 17.8297 28.75 16.9997 28.75Z" fill="black"/>
<path d="M39 22.25V12C39 7.58 35.42 4 31 4H12C7.58 4 4 7.58 4 12V32.94C4 37.36 7.58 40.94 12 40.94H23.99C26.11 42.84 28.92 44 32 44C38.63 44 44 38.63 44 32C44 27.98 42.03 24.43 39 22.25ZM12 37.94C9.24 37.94 7 35.7 7 32.94V12C7 9.24 9.24 7 12 7H31C33.76 7 36 9.24 36 12V20.69C34.75 20.24 33.4 20 32 20C25.37 20 20 25.37 20 32C20 34.16 20.57 36.19 21.57 37.94H12ZM32 41C31.66 41 31.33 40.98 31 40.94H30.99C28.71 40.69 26.69 39.58 25.25 37.94C23.85 36.35 23 34.27 23 32C23 27.04 27.04 23 32 23C33.43 23 34.79 23.34 36 23.94C37.17 24.52 38.19 25.35 39 26.36C40.25 27.9 41 29.87 41 32C41 36.96 36.96 41 32 41Z" fill="black"/>
</g>
<defs>
<clipPath id="clip0_2188_3156">
<rect width="48" height="48" fill="white"/>
</clipPath>
</defs>
</svg>

<?xml version="1.0" encoding="UTF-8"?>
<svg xmlns="http://www.w3.org/2000/svg" viewBox="0 0 48 48">
  <defs>
    <style>
      .cls-1 {
        fill: none;
        opacity: .2;
      }
    </style>
  </defs>
  <g id="guid">
    <rect class="cls-1" width="48" height="48"/>
    <rect class="cls-1" x="4" y="4" width="40" height="40"/>
  </g>
  <g id="Layer_2" data-name="Layer 2">
    <g>
      <path d="M37.28,30.5h-3.78v-3.78c0-.83-.67-1.5-1.5-1.5s-1.5.67-1.5,1.5v3.78h-3.78c-.83,0-1.5.67-1.5,1.5s.67,1.5,1.5,1.5h3.78v3.78c0,.83.67,1.5,1.5,1.5s1.5-.67,1.5-1.5v-3.78h3.78c.83,0,1.5-.67,1.5-1.5s-.67-1.5-1.5-1.5Z"/>
      <path d="M13.72,16.19h15.56c.83,0,1.5-.67,1.5-1.5s-.67-1.5-1.5-1.5h-15.56c-.83,0-1.5.67-1.5,1.5s.67,1.5,1.5,1.5Z"/>
      <path d="M13.72,23.97h6.28c.83,0,1.5-.67,1.5-1.5s-.67-1.5-1.5-1.5h-6.28c-.83,0-1.5.67-1.5,1.5s.67,1.5,1.5,1.5Z"/>
      <path d="M17,28.75h-3.28c-.83,0-1.5.67-1.5,1.5s.67,1.5,1.5,1.5h3.28c.83,0,1.5-.67,1.5-1.5s-.67-1.5-1.5-1.5Z"/>
      <path d="M39,22.25v-10.25c0-4.42-3.58-8-8-8H12c-4.42,0-8,3.58-8,8v20.94c0,4.42,3.58,8,8,8h11.99c2.12,1.9,4.93,3.06,8.01,3.06,6.63,0,12-5.37,12-12,0-4.02-1.97-7.57-5-9.75ZM12,37.94c-2.76,0-5-2.24-5-5V12c0-2.76,2.24-5,5-5h19c2.76,0,5,2.24,5,5v8.69c-1.25-.45-2.6-.69-4-.69-6.63,0-12,5.37-12,12,0,2.16.57,4.19,1.57,5.94h-9.57ZM32,41c-.34,0-.67-.02-1-.06h-.01c-2.28-.25-4.3-1.36-5.74-3-1.4-1.59-2.25-3.67-2.25-5.94,0-4.96,4.04-9,9-9,1.43,0,2.79.34,4,.94,1.17.58,2.19,1.41,3,2.42,1.25,1.54,2,3.51,2,5.64,0,4.96-4.04,9-9,9Z"/>
    </g>
  </g>
</svg>
